X: 13882
T: Fox On The Prowl, The
R: reel
M: 4/4
K: Dmajor
Bc|d2fd eA ~A2|BAFA BAFA|d3e ~f2 af|bfaf eB ~B2|
d2fd eA ~A2|BAFA BAFG|Adde ~f2af|edBA d2:|
e|faaf dcde|faaf eA ~A2|BAFA d2fa|baaf e2 fa|
bf ~f2 afec|d2fd eA ~A2|BAFA dfaf|edBA d3:|

